server/website/public/icons/base/discord.svg

<svg width="48" height="48" viewBox="0 0 48 48" fill="none" xmlns="http://www.w3.org/2000/svg">
<path d="M40.6141 8.99173C37.574 7.59709 34.2825 6.58485 30.8538 6C30.7935 6.00085 30.736 6.0251 30.6938 6.06748C30.2824 6.80979 29.8023 7.77704 29.4823 8.51935C25.8456 7.97983 22.1473 7.97983 18.5106 8.51935C18.1906 7.75455 17.7106 6.80979 17.2763 6.06748C17.2534 6.02249 17.1848 6 17.1163 6C13.6876 6.58485 10.4189 7.59709 7.35601 8.99173C7.33315 8.99173 7.31029 9.01422 7.28743 9.03671C1.07012 18.1918 -0.644214 27.0995 0.201523 35.9173C0.201523 35.9622 0.224381 36.0072 0.270097 36.0297C4.3845 38.999 8.33889 40.7985 12.2476 41.9907C12.3161 42.0132 12.3847 41.9907 12.4076 41.9457C13.3219 40.7085 14.1448 39.4039 14.8534 38.0317C14.8991 37.9417 14.8534 37.8518 14.7619 37.8293C13.459 37.3344 12.2247 36.7495 11.0132 36.0747C10.9218 36.0297 10.9218 35.8948 10.9904 35.8273C11.2418 35.6473 11.4933 35.4449 11.7447 35.2649C11.7904 35.2199 11.859 35.2199 11.9047 35.2424C19.7678 38.774 28.248 38.774 36.0196 35.2424C36.0654 35.2199 36.1339 35.2199 36.1797 35.2649C36.4311 35.4674 36.6825 35.6473 36.934 35.8498C37.0254 35.9173 37.0254 36.0522 36.9111 36.0972C35.7225 36.7945 34.4653 37.3569 33.1624 37.8518C33.071 37.8742 33.0481 37.9867 33.071 38.0542C33.8024 39.4263 34.6253 40.731 35.5168 41.9682C35.5854 41.9907 35.6539 42.0132 35.7225 41.9907C39.654 40.7985 43.6084 38.999 47.7228 36.0297C47.7685 36.0072 47.7914 35.9622 47.7914 35.9173C48.7971 25.7274 46.1228 16.8872 40.7055 9.03671C40.6826 9.01422 40.6598 8.99173 40.6141 8.99173ZM16.042 30.5411C13.6876 30.5411 11.7218 28.4042 11.7218 25.7724C11.7218 23.1406 13.6419 21.0036 16.042 21.0036C18.4649 21.0036 20.3849 23.1631 20.3621 25.7724C20.3621 28.4042 18.442 30.5411 16.042 30.5411ZM31.9738 30.5411C29.6195 30.5411 27.6537 28.4042 27.6537 25.7724C27.6537 23.1406 29.5738 21.0036 31.9738 21.0036C34.3967 21.0036 36.3168 23.1631 36.2939 25.7724C36.2939 28.4042 34.3967 30.5411 31.9738 30.5411Z" fill="black"/>
</svg>

<svg width="48" height="48" fill="none" xmlns="http://www.w3.org/2000/svg"><path d="M40.614 8.992A39.277 39.277 0 0030.854 6a.23.23 0 00-.16.067c-.412.743-.892 1.71-1.212 2.452a37.39 37.39 0 00-10.971 0c-.32-.764-.8-1.71-1.235-2.452-.023-.045-.091-.067-.16-.067a39.573 39.573 0 00-9.76 2.992c-.023 0-.046.022-.069.045C1.07 18.192-.644 27.1.202 35.917c0 .045.022.09.068.113 4.115 2.969 8.069 4.768 11.978 5.96.068.023.137 0 .16-.044a28.912 28.912 0 002.445-3.914c.046-.09 0-.18-.091-.203a28.352 28.352 0 01-3.749-1.754c-.091-.045-.091-.18-.023-.248.252-.18.503-.382.755-.562a.143.143 0 01.16-.023c7.863 3.532 16.343 3.532 24.115 0a.143.143 0 01.16.023c.251.202.502.382.754.585.091.067.091.202-.023.247-1.189.697-2.446 1.26-3.749 1.755-.091.022-.114.135-.091.202a34.297 34.297 0 002.446 3.914c.068.023.137.045.205.023 3.932-1.193 7.886-2.992 12-5.961a.123.123 0 00.07-.113c1.005-10.19-1.67-19.03-7.087-26.88-.022-.023-.045-.045-.09-.045zm-24.572 21.55c-2.354 0-4.32-2.138-4.32-4.77 0-2.631 1.92-4.768 4.32-4.768 2.423 0 4.343 2.16 4.32 4.768 0 2.632-1.92 4.77-4.32 4.77zm15.932 0c-2.355 0-4.32-2.138-4.32-4.77 0-2.631 1.92-4.768 4.32-4.768 2.423 0 4.343 2.16 4.32 4.768 0 2.632-1.897 4.77-4.32 4.77z" fill="#000"/></svg>
